SVG_Azure_All/Image Template.svg

<?xml version="1.0" encoding="UTF-8" standalone="no"?>
<!-- Generated by Microsoft Visio, SVG Export Image Template.svg Page-1 -->

<svg
   xmlns:dc="http://purl.org/dc/elements/1.1/"
   xmlns:cc="http://creativecommons.org/ns#"
   xmlns:rdf="http://www.w3.org/1999/02/22-rdf-syntax-ns#"
   xmlns:svg="http://www.w3.org/2000/svg"
   xmlns="http://www.w3.org/2000/svg"
   xmlns:sodipodi="http://sodipodi.sourceforge.net/DTD/sodipodi-0.dtd"
   xmlns:inkscape="http://www.inkscape.org/namespaces/inkscape"
   width="0.78745699in"
   height="0.7087031in"
   viewBox="0 0 56.696828 51.026518"
   xml:space="preserve"
   class="st8"
   version="1.1"
   id="svg65"
   sodipodi:docname="Image Template.svg"
   style="font-size:12px;overflow:visible;color-interpolation-filters:sRGB;fill:none;fill-rule:evenodd;stroke-linecap:square;stroke-miterlimit:3"
   inkscape:version="0.92.5 (2060ec1f9f, 2020-04-08)"><metadata
   id="metadata69"><rdf:RDF><cc:Work
       rdf:about=""><dc:format>image/svg+xml</dc:format><dc:type
         rdf:resource="http://purl.org/dc/dcmitype/StillImage" /></cc:Work></rdf:RDF></metadata><sodipodi:namedview
   pagecolor="#ffffff"
   bordercolor="#666666"
   borderopacity="1"
   objecttolerance="10"
   gridtolerance="10"
   guidetolerance="10"
   inkscape:pageopacity="0"
   inkscape:pageshadow="2"
   inkscape:window-width="640"
   inkscape:window-height="480"
   id="namedview67"
   showgrid="false"
   inkscape:zoom="1.505483"
   inkscape:cx="37.795102"
   inkscape:cy="33.025758"
   inkscape:window-x="0"
   inkscape:window-y="0"
   inkscape:window-maximized="0"
   inkscape:current-layer="svg65" />
	<style
   type="text/css"
   id="style2">
	<![CDATA[
		.st1 {fill:#37c2b1;stroke:none;stroke-linecap:butt;stroke-width:32.5307}
		.st2 {fill:url(#grad0-8);stroke:none;stroke-linecap:butt;stroke-width:32.5307}
		.st3 {fill:#1f56a3;stroke:none;stroke-linecap:butt;stroke-width:32.5307}
		.st4 {fill:#50e6ff;stroke:none;stroke-linecap:butt;stroke-width:32.5307}
		.st5 {fill:#c3f1ff;stroke:none;stroke-linecap:butt;stroke-width:32.5307}
		.st6 {fill:#9cebff;stroke:none;stroke-linecap:butt;stroke-width:32.5307}
		.st7 {fill:#ffffff;stroke:none;stroke-linecap:butt;stroke-width:32.5307}
		.st8 {fill:none;fill-rule:evenodd;font-size:12px;overflow:visible;stroke-linecap:square;stroke-miterlimit:3}
	]]>
	</style>

	<defs
   id="Patterns_And_Gradients">
		<linearGradient
   id="grad0-8"
   x1="0"
   y1="102.50638"
   x2="39.965256"
   y2="102.50638"
   gradientTransform="scale(1.2118026,0.82521692)"
   gradientUnits="userSpaceOnUse">
			<stop
   offset="0"
   stop-color="#0078d4"
   stop-opacity="1"
   id="stop4" />
			<stop
   offset="0.815"
   stop-color="#5ea0ef"
   stop-opacity="1"
   id="stop6" />
		</linearGradient>
	</defs>
	<g
   id="g63"
   transform="translate(-32.5307,-32.527764)">
		<title
   id="title10">Page-1</title>
		<g
   id="group4169-1"
   transform="translate(32.5307,-34.0157)">
			<title
   id="title12">Image Template</title>
			<g
   id="group4170-2">
				<title
   id="title14">layer1</title>
				<g
   id="shape4171-3"
   transform="translate(6.7668,-3.77649)">
					<title
   id="title16">path2</title>
					<path
   d="m 20.2,106.87 a 0.7486,0.764616 0 0 1 -0.732448,-0.78065 L 19.47,104.83 h -1.25 a 0.7486,0.764616 0 0 1 0,-1.52914 L 20.21,103.3 a 0.7486,0.764616 0 0 1 0.748373,0.76438 L 20.96,106.12 a 0.7486,0.764616 0 0 1 -0.761848,0.74812 z m -2.88,7.31 A 0.7486,0.764616 0 0 1 16.995421,112.73018 3.79485,3.87604 -180 0 0 19.03,110.03 0.7486,0.764616 0 0 1 20.47212,110.44034 5.32122,5.43506 0 0 1 17.66,114.1 a 0.755082,0.771236 0 0 1 -0.3405,0.0751 z m -2.46,3.39 h -2 A 0.74536,0.761306 0 0 1 12.11163,116.80562 3.42541,3.4987 0 0 1 13.04,114.43 0.74983,0.765872 0 0 1 14.13867,115.47211 2.03191,2.07539 -180 0 0 13.77,116.04 h 1.09 a 0.7486,0.764616 0 0 1 0,1.52914 z m 16.18,0 h -4.05 a 0.7486,0.764616 0 0 1 0,-1.52913 l 4.05,-8.7e-4 a 0.7486,0.764616 0 0 1 0,1.52913 z m 6.04,0 h -2 a 0.7486,0.764616 0 0 1 0,-1.52913 l 1.08,-8.7e-4 a 2.06108,2.10518 -180 0 0 -0.37,-0.56 0.7486,0.764616 0 0 1 1.09255,-1.04211 3.39625,3.46891 0 0 1 0.93745,2.37211 0.7486,0.764616 0 0 1 -0.745922,0.76438 z m -4.47,-3.39 A 0.74536,0.761306 0 0 1 32.28542,114.10494 5.31798,5.43175 0 0 1 29.46,110.46 a 0.749009,0.765033 0 1 1 1.44211,-0.4141 3.81106,3.89259 -180 0 0 2.04789,2.6941 0.7486,0.764616 0 0 1 -0.324577,1.44982 z m -2.89,-7.31 a 0.7486,0.764616 0 0 1 -0.74837,-0.74812 L 28.98,104.06 a 0.751841,0.767926 0 0 1 0.74837,-0.76438 L 31.72,103.3 a 0.7486,0.764616 0 0 1 0,1.52914 l -1.26,8.6e-4 v 1.26 a 0.7486,0.764616 0 0 1 -0.732449,0.78064 z m 17.68,-2.04 h -3.92 a 0.7486,0.764616 0 0 1 0,-1.52914 L 47.4,103.3 a 0.7486,0.764616 0 1 1 0,1.52914 z m -7.85,0 h -3.92 a 0.7486,0.764616 0 0 1 0,-1.52914 L 39.55,103.3 a 0.7486,0.764616 0 0 1 0,1.52914 z m -25.27,0 h -3.93 a 0.7486,0.764616 0 0 1 0,-1.52914 L 14.28,103.3 a 0.7486,0.764616 0 0 1 0,1.52914 z m -7.85,0 H 2.5 a 0.7486,0.764616 0 0 1 0,-1.52914 L 6.43,103.3 a 0.7486,0.764616 0 0 1 0,1.52914 z m 42.75,-2.9 a 0.74536,0.761306 0 0 1 -0.74837,-0.76438 L 48.43,97.16 a 0.748617,0.764633 0 0 1 1.49723,0 l 0.0028,4.01 a 0.7486,0.764616 0 0 1 -0.74837,0.76438 z m -48.43,0 A 0.7486,0.764616 0 0 1 0.00163,101.16562 L 0,97.14 a 0.748617,0.764633 0 0 1 1.49723,0 L 1.5,101.15 a 0.751841,0.767926 0 0 1 -0.74837,0.76438 z M 49.18,93.92 A 0.74536,0.761306 0 0 1 48.43163,93.15562 L 48.43,89.15 a 0.748617,0.764633 0 0 1 1.49723,0 l 0.0028,4 a 0.7486,0.764616 0 0 1 -0.74837,0.76438 z M 0.75,93.9 A 0.7486,0.764616 0 0 1 0.00163,93.13562 L 0,89.13 a 0.748617,0.764633 0 1 1 1.49723,0 L 1.5,93.14 A 0.751841,0.767926 0 0 1 0.75163,93.90438 Z M 49.18,85.91 A 0.74536,0.761306 0 0 1 48.43163,85.14562 L 48.43,81.14 a 0.748617,0.764633 0 0 1 1.49723,0 l 0.0028,4 a 0.7486,0.764616 0 0 1 -0.74837,0.768139 z M 0.75,85.89 A 0.74536,0.761306 0 0 1 0.00163,85.12562 L 0,81.12 a 0.748617,0.764633 0 0 1 1.49723,0 l 0.00277,4 a 0.7486,0.764616 0 0 1 -0.74837,0.76438 z m 48.43,-8 A 0.74536,0.761306 0 0 1 48.43163,77.125619 L 48.43,73.12 a 0.748617,0.764633 0 1 1 1.49723,0 l 0.0028,4.01 a 0.7486,0.764616 0 0 1 -0.74837,0.764381 z M 0.75,77.87 A 0.74536,0.761306 0 0 1 0.00163,77.105619 L 0,73.1 a 0.748617,0.764633 0 1 1 1.49723,0 L 1.5,77.1 a 0.7486,0.764616 0 0 1 -0.74837,0.764381 z m 45.78,-6.02 h -3.91 a 0.7486,0.764616 0 0 1 0,-1.52914 L 46.53,70.32 a 0.7486,0.764616 0 1 1 0,1.52914 z m -7.85,0 h -3.92 a 0.7486,0.764616 0 0 1 0,-1.52914 L 38.68,70.32 a 0.7486,0.764616 0 1 1 0,1.52914 z m -7.84,0 h -3.92 a 0.7486,0.764616 0 0 1 0,-1.52914 L 30.84,70.32 a 0.7486,0.764616 0 1 1 0,1.52914 z m -7.85,0 h -3.9 a 0.7486,0.764616 0 0 1 0,-1.52914 L 23.01,70.32 a 0.7486,0.764616 0 1 1 0,1.52914 z m -7.84,0 h -3.91 a 0.7486,0.764616 0 0 1 0,-1.52914 L 15.16,70.32 a 0.7486,0.764616 0 1 1 0,1.52914 z m -7.85,0 H 3.4 a 0.7486,0.764616 0 0 1 0,-1.52914 L 7.32,70.32 a 0.7486,0.764616 0 0 1 0,1.52914 z"
   class="st1"
   id="path18"
   inkscape:connector-curvature="0"
   style="fill:#37c2b1;stroke:none;stroke-width:32.53070068;stroke-linecap:butt" />
				</g>
				<g
   id="shape4172-5"
   transform="translate(0,-12.7369)">
					<title
   id="title21">rect4</title>
					<path
   d="m 0,115.92 a 1.61714,1.65174 -180 0 0 1.62,1.65 h 45.19 a 1.61714,1.65174 -180 0 0 1.62,-1.65 V 86.24 A 1.61714,1.65174 -180 0 0 46.81,84.59 H 1.62 A 1.61714,1.65174 -180 0 0 0,86.24 Z"
   class="st2"
   id="path23"
   inkscape:connector-curvature="0"
   style="fill:url(#grad0-8);stroke:none;stroke-width:32.53070068;stroke-linecap:butt" />
				</g>
				<g
   id="shape4173-9"
   transform="translate(12.117)">
					<title
   id="title26">path6</title>
					<path
   d="m 21.81,114.81 c -4.79,-0.77 -4.97,-4.31 -4.96,-9.98 h -9.5 c 0,5.68 -0.18,9.21 -4.96,9.98 A 2.8194,2.87972 -180 0 0 0,117.57 h 24.21 a 2.83561,2.89627 -180 0 0 -2.4,-2.76 z"
   class="st3"
   id="path28"
   inkscape:connector-curvature="0"
   style="fill:#1f56a3;stroke:none;stroke-width:32.53070068;stroke-linecap:butt" />
				</g>
				<g
   id="shape4174-11"
   transform="translate(24.2145,-21.0848)">
					<title
   id="title31">path8</title>
					<path
   d="m 7.33,104.47 v 8.71 L 0,117.57 v -8.73 z"
   class="st4"
   id="path33"
   inkscape:connector-curvature="0"
   style="fill:#50e6ff;stroke:none;stroke-width:32.53070068;stroke-linecap:butt" />
				</g>
				<g
   id="shape4175-13"
   transform="translate(16.8872,-29.7935)">
					<title
   id="title36">path10</title>
					<path
   d="M 14.66,113.18 7.35,117.57 0,113.18 7.35,108.81 Z"
   class="st5"
   id="path38"
   inkscape:connector-curvature="0"
   style="fill:#c3f1ff;stroke:none;stroke-width:32.53070068;stroke-linecap:butt" />
				</g>
				<g
   id="shape4176-15"
   transform="translate(16.8872,-21.0848)">
					<title
   id="title41">path12</title>
					<path
   d="m 7.33,108.86 v 8.71 L 0,113.18 v -8.71 z"
   class="st6"
   id="path43"
   inkscape:connector-curvature="0"
   style="fill:#9cebff;stroke:none;stroke-width:32.53070068;stroke-linecap:butt" />
				</g>
				<g
   id="shape4177-17"
   transform="translate(16.8872,-21.0848)">
					<title
   id="title46">path14</title>
					<path
   d="m 0,113.18 7.33,-4.34 v 8.73 z"
   class="st5"
   id="path48"
   inkscape:connector-curvature="0"
   style="fill:#c3f1ff;stroke:none;stroke-width:32.53070068;stroke-linecap:butt" />
				</g>
				<g
   id="shape4178-19"
   transform="translate(24.2145,-21.0848)">
					<title
   id="title51">path16</title>
					<path
   d="M 7.33,113.18 0,108.84 v 8.73 z"
   class="st6"
   id="path53"
   inkscape:connector-curvature="0"
   style="fill:#9cebff;stroke:none;stroke-width:32.53070068;stroke-linecap:butt" />
				</g>
				<g
   id="shape4179-21"
   transform="translate(5.81058,-17.8444)">
					<title
   id="title56">path18</title>
					<path
   d="M 8.34,93.62 H 1.62 A 1.62035,1.65501 -180 0 0 0,95.27 v 6.89 a 0.806933,0.824196 -180 0 0 0.807161,0.82443 L 1.34,102.98 a 0.806933,0.824196 -180 0 0 0.807167,-0.82443 L 2.15,95.79 H 8.34 A 0.803692,0.820886 -180 0 0 9.121443,94.96557 L 9.12,94.44 A 0.803692,0.820886 -180 0 0 8.338557,93.61557 Z m 0,21.61 H 2.12 v -6.32 A 0.803692,0.820886 -180 0 0 1.316513,108.08932 L 0.82,108.09 a 0.806933,0.824196 -180 0 0 -0.807161,0.82068 L 0.02,115.9 a 1.62035,1.65501 -180 0 0 1.58,1.67 h 6.74 a 0.826377,0.844056 -180 0 0 0.791234,-0.88698 L 9.13,116.05 A 0.803692,0.820886 -180 0 0 8.338766,115.22932 Z M 35.29,93.68 h -6.62 a 0.803692,0.820886 -180 0 0 -0.80716,0.820677 L 27.86,95.04 a 0.800451,0.817576 -180 0 0 0.728769,0.893235 L 34.85,95.94 v 6.26 a 0.803692,0.820886 -180 0 0 0.807163,0.82443 L 36.22,103.03 a 0.803692,0.820886 -180 0 0 0.807163,-0.82443 L 37.03,95.34 A 1.62035,1.65501 -180 0 0 35.4,93.68 Z m 0.83,14.46 h -0.51 a 0.803692,0.820886 -180 0 0 -0.807163,0.82068 L 34.8,115.3 h -6.13 a 0.806933,0.824196 -180 0 0 -0.807163,0.82443 L 27.86,116.68 a 0.806933,0.824196 -180 0 0 0.807163,0.82443 L 35.38,117.5 a 1.63655,1.67156 -180 0 0 1.64,-1.65 v -6.89 a 0.806933,0.824196 -180 0 0 -0.801038,-0.82818 0.557399,0.569324 -180 0 0 -0.09798,0.007 z"
   class="st7"
   id="path58"
   inkscape:connector-curvature="0"
   style="fill:#ffffff;stroke:none;stroke-width:32.53070068;stroke-linecap:butt" />
				</g>
			</g>
		</g>
	</g>
</svg>

<?xml version="1.0" encoding="UTF-8" standalone="no"?>
<!DOCTYPE svg PUBLIC "-//W3C//DTD SVG 1.1//EN" "http://www.w3.org/Graphics/SVG/1.1/DTD/svg11.dtd">
<!-- Generated by Microsoft Visio, SVG Export Image Template.svg Page-1 -->
<svg xmlns="http://www.w3.org/2000/svg" xmlns:xlink="http://www.w3.org/1999/xlink" xmlns:ev="http://www.w3.org/2001/xml-events"
		width="1.69103in" height="1.63292in" viewBox="0 0 121.754 117.57" xml:space="preserve" color-interpolation-filters="sRGB"
		class="st8">
	<style type="text/css">
	<![CDATA[
		.st1 {fill:#37c2b1;stroke:none;stroke-linecap:butt;stroke-width:32.5307}
		.st2 {fill:url(#grad0-8);stroke:none;stroke-linecap:butt;stroke-width:32.5307}
		.st3 {fill:#1f56a3;stroke:none;stroke-linecap:butt;stroke-width:32.5307}
		.st4 {fill:#50e6ff;stroke:none;stroke-linecap:butt;stroke-width:32.5307}
		.st5 {fill:#c3f1ff;stroke:none;stroke-linecap:butt;stroke-width:32.5307}
		.st6 {fill:#9cebff;stroke:none;stroke-linecap:butt;stroke-width:32.5307}
		.st7 {fill:#ffffff;stroke:none;stroke-linecap:butt;stroke-width:32.5307}
		.st8 {fill:none;fill-rule:evenodd;font-size:12px;overflow:visible;stroke-linecap:square;stroke-miterlimit:3}
	]]>
	</style>

	<defs id="Patterns_And_Gradients">
		<linearGradient id="grad0-8" x1="0" y1="0" x2="1" y2="0" gradientTransform="rotate(-90 0.5 0.5)">
			<stop offset="0" stop-color="#0078d4" stop-opacity="1"/>
			<stop offset="0.815" stop-color="#5ea0ef" stop-opacity="1"/>
		</linearGradient>
	</defs>
	<g>
		<title>Page-1</title>
		<g id="group4085-1" transform="translate(32.5307,-34.0157)">
			<title>Image Template</title>
			<g id="group4086-2">
				<title>layer1</title>
				<g id="shape4087-3" transform="translate(6.7668,-3.77649)">
					<title>path2</title>
					<path d="M20.2 106.87 a0.7486 0.764616 0 0 1 -0.732448 -0.780648 L19.47 104.83 L18.22 104.83 a0.7486 0.764616
								 0 0 1 -1.06581E-14 -1.52914 L20.21 103.3 a0.7486 0.764616 0 0 1 0.748373 0.76438 L20.96 106.12 a0.7486
								 0.764616 0 0 1 -0.761848 0.748119 L20.2 106.87 ZM17.32 114.18 a0.7486 0.764616 0 0 1 -0.324579 -1.44982
								 A3.79485 3.87604 -180 0 0 19.03 110.03 a0.7486 0.764616 0 0 1 1.44212 0.410336 A5.32122 5.43506
								 0 0 1 17.66 114.1 a0.755082 0.771236 0 0 1 -0.3405 0.075066 L17.32 114.18 ZM14.86 117.57 L12.86
								 117.57 a0.74536 0.761306 0 0 1 -0.74837 -0.76438 A3.42541 3.4987 0 0 1 13.04 114.43 a0.74983 0.765872
								 0 0 1 1.09867 1.04211 A2.03191 2.07539 -180 0 0 13.77 116.04 L14.86 116.04 a0.7486 0.764616 0 0
								 1 0 1.52914 L14.86 117.57 ZM31.04 117.57 L26.99 117.57 a0.7486 0.764616 0 0 1 -1.06581E-14 -1.52913
								 L31.04 116.04 a0.7486 0.764616 0 0 1 0 1.52913 ZM37.08 117.57 L35.08 117.57 a0.7486 0.764616 0 0
								 1 -1.42109E-14 -1.52913 L36.16 116.04 A2.06108 2.10518 -180 0 0 35.79 115.48 a0.7486 0.764616 0
								 0 1 1.09255 -1.04211 A3.39625 3.46891 0 0 1 37.82 116.81 a0.7486 0.764616 0 0 1 -0.745922 0.76438
								 L37.08 117.57 ZM32.61 114.18 a0.74536 0.761306 0 0 1 -0.32458 -0.0750602 A5.31798 5.43175 0 0 1
								 29.46 110.46 a0.749009 0.765033 0 1 1 1.44211 -0.414095 A3.81106 3.89259 -180 0 0 32.95 112.74 a0.7486
								 0.764616 0 0 1 -0.324577 1.44982 L32.61 114.18 ZM29.72 106.87 a0.7486 0.764616 0 0 1 -0.74837 -0.748119
								 L28.98 104.06 a0.751841 0.767926 0 0 1 0.74837 -0.76438 L31.72 103.3 a0.7486 0.764616 0 0 1 0 1.52914
								 L30.46 104.83 L30.46 106.09 a0.7486 0.764616 0 0 1 -0.732449 0.780642 L29.72 106.87 ZM47.4 104.83
								 L43.48 104.83 a0.7486 0.764616 0 0 1 -7.10543E-15 -1.52914 L47.4 103.3 a0.7486 0.764616 0 1 1 0
								 1.52914 ZM39.55 104.83 L35.63 104.83 a0.7486 0.764616 0 0 1 -7.10543E-15 -1.52914 L39.55 103.3 a0.7486
								 0.764616 0 0 1 0 1.52914 ZM14.28 104.83 L10.35 104.83 a0.7486 0.764616 0 0 1 -1.06581E-14 -1.52914
								 L14.28 103.3 a0.7486 0.764616 0 0 1 0 1.52914 ZM6.43 104.83 L2.5 104.83 a0.7486 0.764616 0 0 1 -1.02141E-14
								 -1.52914 L6.43 103.3 a0.7486 0.764616 0 0 1 0 1.52914 ZM49.18 101.93 a0.74536 0.761306 0 0 1 -0.74837
								 -0.76438 L48.43 97.16 a0.748617 0.764633 0 0 1 1.49723 0 L49.93 101.17 a0.7486 0.764616 0 0 1 -0.74837
								 0.76438 L49.18 101.93 ZM0.75 101.93 a0.7486 0.764616 0 0 1 -0.74837 -0.76438 L0 97.14 a0.748617
								 0.764633 0 0 1 1.49723 0 L1.5 101.15 a0.751841 0.767926 0 0 1 -0.74837 0.76438 L0.75 101.93 ZM49.18
								 93.92 a0.74536 0.761306 0 0 1 -0.74837 -0.76438 L48.43 89.15 a0.748617 0.764633 0 0 1 1.49723 0
								 L49.93 93.15 a0.7486 0.764616 0 0 1 -0.74837 0.76438 L49.18 93.92 ZM0.75 93.9 a0.7486 0.764616 0
								 0 1 -0.74837 -0.76438 L0 89.13 a0.748617 0.764633 0 1 1 1.49723 0 L1.5 93.14 a0.751841 0.767926
								 0 0 1 -0.74837 0.76438 L0.75 93.9 ZM49.18 85.91 a0.74536 0.761306 0 0 1 -0.74837 -0.76438 L48.43
								 81.14 a0.748617 0.764633 0 0 1 1.49723 0 L49.93 85.14 a0.7486 0.764616 0 0 1 -0.74837 0.768139 L49.18
								 85.91 ZM0.75 85.89 a0.74536 0.761306 0 0 1 -0.74837 -0.76438 L0 81.12 a0.748617 0.764633 0 0 1 1.49723
								 0 L1.5 85.12 a0.7486 0.764616 0 0 1 -0.74837 0.76438 L0.75 85.89 ZM49.18 77.89 a0.74536 0.761306
								 0 0 1 -0.74837 -0.764381 L48.43 73.12 a0.748617 0.764633 0 1 1 1.49723 -1.42109E-14 L49.93 77.13
								 a0.7486 0.764616 0 0 1 -0.74837 0.764381 L49.18 77.89 ZM0.75 77.87 a0.74536 0.761306 0 0 1 -0.74837
								 -0.764381 L0 73.1 a0.748617 0.764633 0 1 1 1.49723 -1.42109E-14 L1.5 77.1 a0.7486 0.764616 0 0 1
								 -0.74837 0.764381 L0.75 77.87 ZM46.53 71.85 L42.62 71.85 a0.7486 0.764616 0 0 1 -7.10543E-15 -1.52914
								 L46.53 70.32 a0.7486 0.764616 0 1 1 0 1.52914 ZM38.68 71.85 L34.76 71.85 a0.7486 0.764616 0 0 1
								 -7.10543E-15 -1.52914 L38.68 70.32 a0.7486 0.764616 0 1 1 0 1.52914 ZM30.84 71.85 L26.92 71.85 a0.7486
								 0.764616 0 0 1 -1.06581E-14 -1.52914 L30.84 70.32 a0.7486 0.764616 0 1 1 -3.55271E-15 1.52914 ZM22.99
								 71.85 L19.09 71.85 a0.7486 0.764616 0 0 1 -1.06581E-14 -1.52914 L23.01 70.32 a0.7486 0.764616 0
								 1 1 0 1.52914 L22.99 71.85 ZM15.15 71.85 L11.24 71.85 a0.7486 0.764616 0 0 1 -1.06581E-14 -1.52914
								 L15.16 70.32 a0.7486 0.764616 0 1 1 0 1.52914 L15.15 71.85 ZM7.3 71.85 L3.4 71.85 a0.7486 0.764616
								 0 0 1 -1.06581E-14 -1.52914 L7.32 70.32 a0.7486 0.764616 0 0 1 -8.88178E-16 1.52914 L7.3 71.85 Z"
							class="st1"/>
				</g>
				<g id="shape4088-5" transform="translate(-2.79776E-13,-12.7369)">
					<title>rect4</title>
					<path d="M-0 115.92 A1.61714 1.65174 -180 0 0 1.62 117.57 L46.81 117.57 A1.61714 1.65174 -180 0 0 48.43 115.92
								 L48.43 86.24 A1.61714 1.65174 -180 0 0 46.81 84.59 L1.62 84.59 A1.61714 1.65174 -180 0 0 0 86.24
								 L0 115.92 Z" class="st2"/>
				</g>
				<g id="shape4089-9" transform="translate(12.117,0)">
					<title>path6</title>
					<path d="M21.81 114.81 C17.02 114.04 16.84 110.5 16.85 104.83 L7.35 104.83 C7.35 110.51 7.17 114.04 2.39 114.81
								 A2.8194 2.87972 -180 0 0 0 117.57 L24.21 117.57 A2.83561 2.89627 -180 0 0 21.81 114.81 Z"
							class="st3"/>
				</g>
				<g id="shape4090-11" transform="translate(24.2145,-21.0848)">
					<title>path8</title>
					<path d="M7.33 104.47 L7.33 113.18 L0 117.57 L0 108.84 L7.33 104.47 Z" class="st4"/>
				</g>
				<g id="shape4091-13" transform="translate(16.8872,-29.7935)">
					<title>path10</title>
					<path d="M14.66 113.18 L7.35 117.57 L0 113.18 L7.35 108.81 L14.66 113.18 Z" class="st5"/>
				</g>
				<g id="shape4092-15" transform="translate(16.8872,-21.0848)">
					<title>path12</title>
					<path d="M7.33 108.86 L7.33 117.57 L0 113.18 L0 104.47 L7.33 108.86 Z" class="st6"/>
				</g>
				<g id="shape4093-17" transform="translate(16.8872,-21.0848)">
					<title>path14</title>
					<path d="M0 113.18 L7.33 108.84 L7.33 117.57 L0 113.18 Z" class="st5"/>
				</g>
				<g id="shape4094-19" transform="translate(24.2145,-21.0848)">
					<title>path16</title>
					<path d="M7.33 113.18 L0 108.84 L0 117.57 L7.33 113.18 Z" class="st6"/>
				</g>
				<g id="shape4095-21" transform="translate(5.81058,-17.8444)">
					<title>path18</title>
					<path d="M8.34 93.62 L1.62 93.62 A1.62035 1.65501 -180 0 0 0 95.27 L0 102.16 a0.806933 0.824196 -180 0 0 0.807161
								 0.824428 L1.34 102.98 a0.806933 0.824196 -180 0 0 0.807167 -0.824428 L2.15 95.79 L8.34 95.79 a0.803692
								 0.820886 -180 0 0 0.781443 -0.82443 L9.12 94.44 a0.803692 0.820886 -180 0 0 -0.781443 -0.82443 L8.34
								 93.62 ZM8.34 115.23 L2.12 115.23 L2.12 108.91 a0.803692 0.820886 -180 0 0 -0.803487 -0.820681 L0.82
								 108.09 a0.806933 0.824196 -180 0 0 -0.807161 0.820681 L0.02 115.9 A1.62035 1.65501 -180 0 0 1.6
								 117.57 L8.34 117.57 a0.826377 0.844056 -180 0 0 0.791234 -0.886979 L9.13 116.05 a0.803692 0.820886
								 -180 0 0 -0.791234 -0.820679 L8.34 115.23 ZM35.29 93.68 L28.67 93.68 a0.803692 0.820886 -180 0 0
								 -0.80716 0.820677 L27.86 95.04 a0.800451 0.817576 -180 0 0 0.728769 0.893235 L34.85 95.94 L34.85
								 102.2 a0.803692 0.820886 -180 0 0 0.807163 0.824428 L36.22 103.03 a0.803692 0.820886 -180 0 0 0.807163
								 -0.824428 L37.03 95.34 A1.62035 1.65501 -180 0 0 35.4 93.68 L35.29 93.68 ZM36.12 108.14 L35.61 108.14
								 a0.803692 0.820886 -180 0 0 -0.807163 0.820679 L34.8 115.3 L28.67 115.3 a0.806933 0.824196 -180
								 0 0 -0.807163 0.824428 L27.86 116.68 a0.806933 0.824196 -180 0 0 0.807163 0.824434 L35.38 117.5
								 A1.63655 1.67156 -180 0 0 37.02 115.85 L37.02 108.96 a0.806933 0.824196 -180 0 0 -0.801038 -0.828181
								 a0.557399 0.569324 -180 0 0 -0.0979793 0.00660498 L36.12 108.14 Z" class="st7"/>
				</g>
			</g>
		</g>
	</g>
</svg>
